img/svg/online-school/people.svg

<svg width="24" height="24" viewBox="0 0 24 24" fill="none" xmlns="http://www.w3.org/2000/svg">
<path fill-rule="evenodd" clip-rule="evenodd" d="M10.4452 20.1368C10.4671 20.1397 10.4847 20.1413 10.4966 20.1421C10.5023 20.1425 10.5065 20.1427 10.5091 20.1429H10.533V19.5H22.467C22.474 19.4992 22.481 19.4982 22.488 19.497L22.5 19.494C22.4994 19.4166 22.4894 19.3101 22.467 19.1811C22.4494 19.08 22.4242 18.965 22.39 18.8393C22.3799 18.8026 22.3692 18.765 22.3576 18.7266C22.3493 18.6991 22.3406 18.6712 22.3314 18.6429C22.1685 18.1379 21.8696 17.507 21.36 16.914C20.5305 15.945 19.0755 15 16.5 15C13.923 15 12.468 15.9435 11.64 16.914C11.1301 17.5073 10.8307 18.138 10.6677 18.6429C10.6666 18.6463 10.6655 18.6497 10.6644 18.6531C10.6552 18.682 10.6464 18.7106 10.638 18.7386C10.5891 18.9022 10.5551 19.0504 10.533 19.1772C10.5103 19.3078 10.5003 19.4156 10.5 19.494C10.5109 19.4965 10.5219 19.4985 10.533 19.5L10.4452 20.1368ZM22.5 21H10.5C10.5 21 9 21 9 19.5C9 18 10.5 13.5 16.5 13.5C22.5 13.5 24 18 24 19.5C24 21 22.5 21 22.5 21ZM6.1862 13.5774C1.27678 14.1787 0 18.1161 0 19.5C0 20.5005 0.4995 21 1.5 21H7.824C7.69435 20.727 7.60259 20.4386 7.55045 20.1429C7.51316 19.9314 7.49614 19.7161 7.5 19.5C7.5 17.985 8.0655 16.437 9.135 15.144C9.29083 14.9555 9.45764 14.7721 9.63506 14.5951C9.87262 14.358 10.1292 14.1321 10.404 13.92C10.0659 13.8135 9.72194 13.7276 9.37399 13.6627C9.10442 13.6123 8.83247 13.5745 8.559 13.5495C8.45183 13.5393 8.34454 13.5307 8.23714 13.5236C8.09097 13.5141 7.94463 13.5074 7.79819 13.5036C7.69883 13.5011 7.59942 13.4999 7.5 13.5C7.44902 13.5 7.39837 13.5003 7.34804 13.501C7.1434 13.5036 6.94409 13.5115 6.75 13.5244C6.55694 13.5372 6.36906 13.555 6.1862 13.5774ZM8.23714 14.8982C8.31361 14.7968 8.39268 14.6966 8.47432 14.5979C8.47439 14.5978 8.47425 14.598 8.47432 14.5979M6.87 15.8795C7.02093 15.5777 7.19078 15.2844 7.37899 15.0015C7.00575 15.0058 6.65657 15.0302 6.32988 15.0717C4.4672 15.3083 3.33542 16.1025 2.64 16.914C2.13028 17.5075 1.83121 18.1381 1.66828 18.6429C1.54545 19.0234 1.5 19.3324 1.5 19.5H6C6.00997 18.2381 6.30953 17.0001 6.87 15.8795ZM8.23714 14.8982V14.3828ZM8.23714 14.3828C8.31745 14.3885 8.39769 14.3952 8.47786 14.4028L8.48086 14.4031C8.52976 14.4076 8.57862 14.4125 8.62741 14.4179M8.23714 12.4972C8.86898 12.2759 9.4496 11.9144 9.93198 11.432C10.7111 10.6529 11.175 9.61757 11.2417 8.52409C11.2472 8.43309 11.25 8.34169 11.25 8.25C11.25 7.997 11.2287 7.7462 11.1871 7.5C11.1753 7.43032 11.1619 7.36101 11.1469 7.29212C10.9648 6.45616 10.5464 5.68241 9.93198 5.06802C9.08807 4.22411 7.94347 3.75 6.75 3.75C5.55653 3.75 4.41193 4.22411 3.56802 5.06802C2.72411 5.91193 2.25 7.05653 2.25 8.25C2.25 9.44347 2.72411 10.5881 3.56802 11.432C4.27781 12.1418 5.20031 12.59 6.18569 12.7145C6.37188 12.738 6.56032 12.75 6.75 12.75C7.00261 12.75 7.25303 12.7288 7.49887 12.6873C7.49925 12.6872 7.49962 12.6871 7.5 12.6871C7.57323 12.6747 7.64605 12.6605 7.7184 12.6446C7.79878 12.6269 7.87858 12.607 7.95771 12.5849C8.05185 12.5587 8.14504 12.5294 8.23714 12.4972ZM12.1031 8.4578C12.1599 8.71855 12.2399 8.97435 12.3425 9.22208C12.5687 9.76804 12.9002 10.2641 13.318 10.682C13.7359 11.0998 14.232 11.4313 14.7779 11.6575C15.3239 11.8836 15.9091 12 16.5 12C17.0909 12 17.6761 11.8836 18.2221 11.6575C18.768 11.4313 19.2641 11.0998 19.682 10.682C20.0998 10.2641 20.4313 9.76804 20.6575 9.22208C20.8836 8.67611 21 8.09095 21 7.5C21 6.30653 20.5259 5.16193 19.682 4.31802C18.8381 3.47411 17.6935 3 16.5 3C15.3065 3 14.1619 3.47411 13.318 4.31802C12.539 5.09708 12.0751 6.13238 12.0084 7.22582C12.0028 7.31685 12 7.40828 12 7.5C12 7.75191 12.0212 8.00278 12.0629 8.25C12.0747 8.31958 12.0881 8.38886 12.1031 8.4578ZM18.6213 9.62132C18.0587 10.1839 17.2956 10.5 16.5 10.5C15.7044 10.5 14.9413 10.1839 14.3787 9.62132C13.8161 9.05871 13.5 8.29565 13.5 7.5C13.5 6.70435 13.8161 5.94129 14.3787 5.37868C14.9413 4.81607 15.7044 4.5 16.5 4.5C17.2956 4.5 18.0587 4.81607 18.6213 5.37868C19.1839 5.94129 19.5 6.70435 19.5 7.5C19.5 8.29565 19.1839 9.05871 18.6213 9.62132ZM4.62868 6.12868C5.19129 5.56607 5.95435 5.25 6.75 5.25C7.54565 5.25 8.30871 5.56607 8.87132 6.12868C9.43393 6.69129 9.75 7.45435 9.75 8.25C9.75 9.04565 9.43393 9.80871 8.87132 10.3713C8.30871 10.9339 7.54565 11.25 6.75 11.25C5.95435 11.25 5.19129 10.9339 4.62868 10.3713C4.06607 9.80871 3.75 9.04565 3.75 8.25C3.75 7.45435 4.06607 6.69129 4.62868 6.12868Z" fill="#FBFBFB"/>
</svg>

<svg width="24" height="24" fill="none" xmlns="http://www.w3.org/2000/svg"><path fill-rule="evenodd" clip-rule="evenodd" d="M10.445 20.137a.82.82 0 00.052.005h.036V19.5h11.934a.379.379 0 00.021-.003l.012-.003c0-.077-.01-.184-.033-.313a3.782 3.782 0 00-.136-.538 5.064 5.064 0 00-.971-1.729C20.53 15.945 19.076 15 16.5 15c-2.577 0-4.032.944-4.86 1.914a5.068 5.068 0 00-.972 1.729l-.004.01a3.86 3.86 0 00-.131.524c-.023.13-.033.239-.033.317.01.003.022.005.033.006l-.088.637zM22.5 21h-12S9 21 9 19.5s1.5-6 7.5-6 7.5 4.5 7.5 6-1.5 1.5-1.5 1.5zM6.186 13.577C1.276 14.18 0 18.117 0 19.5c0 1 .5 1.5 1.5 1.5h6.324a3.357 3.357 0 01-.324-1.5c0-1.515.566-3.063 1.635-4.356a8.057 8.057 0 011.269-1.224 8.797 8.797 0 00-1.845-.37 11.181 11.181 0 00-2.373.027zm2.051 1.321c.077-.101.156-.201.237-.3M6.87 15.879c.15-.301.32-.595.509-.877a9.16 9.16 0 00-1.05.07c-1.862.236-2.994 1.03-3.689 1.842a5.07 5.07 0 00-.972 1.729c-.123.38-.168.69-.168.857H6c.01-1.262.31-2.5.87-3.62zm1.367-.98v-.516zm0-.516c.08.006.16.012.24.02h.004l.146.015m-.39-1.92a4.5 4.5 0 10-.738.19H7.5a4.58 4.58 0 00.737-.19zm3.866-4.04A4.501 4.501 0 1020.9 6.542a4.501 4.501 0 00-8.796 1.916zm6.518 1.163a3 3 0 11-4.242-4.243 3 3 0 014.242 4.243zM4.63 6.13a3 3 0 114.24 4.24 3 3 0 01-4.24-4.24z" fill="#FBFBFB"/></svg>
